X:491
T: VETTER MICHEL WOHNT
N: E1748
O: Europa, Mitteleuropa, Deutschland, Uckermark
R: Scherz -, Spiel - Lied, Musikantenspiel
M: 2/4
L: 1/16
K: D
AA | d2cBA2AA | BBBBA2
AA | BBBBA2
A2 | B2B2c2c2 | d4z2
A2 | FAAABAA2 | FAAABAA2 |
dcdef4 | AdFAD2

@@@ Tune index: 5175
